X: 3
T: The Otter's Holt
R: reel
M: 4/4
L: 1/8
K: Bmin
e|:fBBA FEFB|(3ABA FB ABde|fBBA FEFA|
|(3Bcd cA Bcde|fBBA FEFB|(3ABA FB ABde|
|faaf effe|1 dBBA ~B3e:|2 dBAF B3c||
|:d2fd Adfa|bfaf effe|d2fd Adfa|bfaf ~e3f|
~d2fd Adfa|bfaf efde|fBBA FEFA|(3Bcd cA ~B3c:|
